<?xml version="1.0" encoding="UTF-8"?>
<map version="1.10" tiledversion="1.10.1" orientation="orthogonal" renderorder="right-down" width="35" height="20" tilewidth="16" tileheight="16" infinite="0" nextlayerid="16" nextobjectid="389">
 <tileset firstgid="1" name="terrain" tilewidth="16" tileheight="16" tilecount="242" columns="22">
  <image source="tile.png" trans="ff00ff" width="352" height="176"/>
  <tile id="6" type="solid"/>
  <tile id="7" type="solid"/>
  <tile id="8" type="solid"/>
  <tile id="12" type="solid"/>
  <tile id="13" type="solid"/>
  <tile id="14" type="solid"/>
  <tile id="15" type="solid"/>
  <tile id="28" type="solid"/>
  <tile id="30" type="solid"/>
  <tile id="34" type="solid"/>
  <tile id="35" type="solid"/>
  <tile id="36" type="solid"/>
  <tile id="37" type="solid"/>
  <tile id="39" type="platform"/>
  <tile id="40" type="platform"/>
  <tile id="41" type="platform"/>
  <tile id="50" type="solid"/>
  <tile id="51" type="solid"/>
  <tile id="52" type="solid"/>
  <tile id="57" type="solid"/>
  <tile id="58" type="solid"/>
  <tile id="59" type="solid"/>
  <tile id="94" type="solid"/>
  <tile id="95" type="solid"/>
  <tile id="96" type="solid"/>
  <tile id="100" type="solid"/>
  <tile id="101" type="solid"/>
  <tile id="102" type="solid"/>
  <tile id="103" type="solid"/>
  <tile id="105" type="solid"/>
  <tile id="106" type="solid"/>
  <tile id="107" type="solid"/>
  <tile id="116" type="solid"/>
  <tile id="118" type="solid"/>
  <tile id="122" type="solid"/>
  <tile id="123" type="solid"/>
  <tile id="124" type="solid"/>
  <tile id="125" type="solid"/>
  <tile id="127" type="solid"/>
  <tile id="129" type="solid"/>
  <tile id="138" type="solid"/>
  <tile id="139" type="solid"/>
  <tile id="140" type="solid"/>
  <tile id="145" type="solid"/>
  <tile id="146" type="solid"/>
  <tile id="147" type="solid"/>
  <tile id="149" type="solid"/>
  <tile id="150" type="solid"/>
  <tile id="151" type="solid"/>
  <tile id="182" type="solid"/>
  <tile id="183" type="solid"/>
  <tile id="184" type="solid"/>
  <tile id="188" type="solid"/>
  <tile id="189" type="solid"/>
  <tile id="190" type="solid"/>
  <tile id="191" type="solid"/>
  <tile id="193" type="solid"/>
  <tile id="194" type="solid"/>
  <tile id="195" type="solid"/>
  <tile id="196" type="solid"/>
  <tile id="204" type="solid"/>
  <tile id="206" type="solid"/>
  <tile id="210" type="solid"/>
  <tile id="211" type="solid"/>
  <tile id="212" type="solid"/>
  <tile id="213" type="solid"/>
  <tile id="215" type="solid"/>
  <tile id="216" type="solid"/>
  <tile id="217" type="solid"/>
  <tile id="218" type="solid"/>
  <tile id="226" type="solid"/>
  <tile id="227" type="solid"/>
  <tile id="228" type="solid"/>
  <tile id="233" type="solid"/>
  <tile id="234" type="solid"/>
  <tile id="235" type="solid"/>
  <tile id="238" type="solid"/>
  <tile id="239" type="solid"/>
  <tile id="240" type="solid"/>
 </tileset>
 <layer id="2" name="ground" width="35" height="20">
  <data encoding="csv">
0,0,0,0,0,0,0,0,0,0,0,0,0,0,0,0,0,0,0,0,0,0,0,0,0,0,0,0,0,0,0,0,0,0,0,
0,0,0,0,0,0,0,0,0,0,0,0,0,0,0,0,0,0,0,0,0,0,0,0,0,0,0,0,0,0,0,0,0,0,0,
0,0,0,0,0,0,0,0,0,0,0,0,0,0,0,0,0,0,0,0,0,0,0,0,0,0,0,0,0,0,0,0,0,0,0,
0,0,0,0,0,0,0,0,0,0,0,0,0,0,0,0,0,0,0,0,0,0,0,0,0,0,0,0,0,0,0,0,0,0,0,
0,14,14,14,14,14,15,0,0,0,0,0,0,0,0,0,0,0,0,0,0,0,0,0,0,0,0,0,0,0,0,0,0,0,0,
0,0,0,0,0,0,0,0,0,0,0,0,0,0,0,0,0,0,0,0,0,0,0,0,0,0,0,0,0,0,0,0,0,0,0,
0,0,0,0,0,0,0,0,0,0,0,0,0,0,0,0,0,0,0,0,0,0,0,0,0,0,0,0,0,0,0,0,0,0,0,
0,0,0,0,0,0,0,0,0,0,0,0,0,0,0,0,0,0,0,0,0,0,0,0,0,0,0,0,0,0,0,0,0,0,0,
0,0,0,0,0,0,0,13,14,14,14,14,14,14,14,14,14,14,14,14,14,14,14,14,14,14,14,14,15,0,0,0,0,0,0,
0,0,0,0,0,0,0,0,0,0,0,0,0,0,0,0,0,0,0,0,0,0,0,0,0,0,0,0,0,0,0,0,0,0,0,
0,0,0,0,0,0,0,0,0,0,0,0,0,0,0,0,0,0,0,0,0,0,0,0,0,0,0,0,0,0,0,0,0,0,0,
0,0,0,0,0,0,0,0,0,0,0,0,0,0,0,0,0,0,0,0,0,0,0,0,0,0,0,0,0,0,0,0,0,0,0,
0,13,14,14,14,15,0,13,14,15,0,13,14,15,0,13,14,14,15,0,13,14,15,0,13,14,14,14,15,0,0,0,0,0,0,
0,0,0,0,0,0,0,0,0,0,0,0,0,0,0,0,0,0,0,0,0,0,0,0,0,0,0,0,0,0,0,0,0,0,0,
0,0,0,0,0,0,0,0,0,0,0,0,0,0,0,0,0,0,0,0,0,0,0,0,0,0,0,0,0,0,0,0,0,0,0,
0,0,0,0,0,0,0,0,0,0,0,0,0,0,0,0,0,0,0,0,0,0,0,0,0,0,0,0,0,0,0,0,0,0,0,
0,0,0,0,0,0,0,0,0,0,0,0,0,0,0,0,0,0,0,0,0,0,0,0,0,0,0,0,0,0,0,0,0,0,0,
0,96,96,96,96,96,96,96,96,96,96,96,96,96,96,96,96,96,96,96,96,96,96,96,96,96,96,96,96,96,96,96,96,96,0,
0,118,118,118,118,118,118,118,118,118,118,118,118,118,118,118,118,118,118,118,118,118,118,118,118,118,118,118,118,118,118,118,118,118,0,
0,0,0,0,0,0,0,0,0,0,0,0,0,0,0,0,0,0,0,0,0,0,0,0,0,0,0,0,0,0,0,0,0,0,0
</data>
 </layer>
 <layer id="1" name="frame" width="35" height="20">
  <properties>
   <property name="background" value="gray"/>
  </properties>
  <data encoding="csv">
4,46,46,46,46,46,46,46,46,46,46,46,46,46,46,46,46,46,46,46,46,46,46,46,46,46,46,46,46,46,46,46,46,46,5,
25,0,0,0,0,0,0,0,0,0,0,0,0,0,0,0,0,0,0,0,0,0,0,0,0,0,0,0,0,0,0,0,0,0,23,
25,0,0,0,0,0,0,0,0,0,0,0,0,0,0,0,0,0,0,0,0,0,0,0,0,0,0,0,0,0,0,0,0,0,23,
25,0,0,0,0,0,0,0,0,0,0,0,0,0,0,0,0,0,0,0,0,0,0,0,0,0,0,0,0,0,0,0,0,0,23,
25,0,0,0,0,0,0,0,0,0,0,0,0,0,0,0,0,0,0,0,0,0,0,0,0,0,0,0,0,0,0,0,0,0,23,
25,0,0,0,0,0,0,0,0,0,0,0,0,0,0,0,0,0,0,0,0,0,0,0,0,0,0,0,0,0,0,0,0,0,23,
25,0,0,0,0,0,0,0,0,0,0,0,0,0,0,0,0,0,0,0,0,0,0,0,0,0,0,0,0,0,0,0,0,0,23,
25,0,0,0,0,0,0,0,0,0,0,0,0,0,0,0,0,0,0,0,0,0,0,0,0,0,0,0,0,0,0,0,0,0,23,
25,0,0,0,0,0,0,0,0,0,0,0,0,0,0,0,0,0,0,0,0,0,0,0,0,0,0,0,0,0,0,0,0,0,23,
25,0,0,0,0,0,0,0,0,0,0,0,0,0,0,0,0,0,0,0,0,0,0,0,0,0,0,0,0,0,0,0,0,0,23,
25,0,0,0,0,0,0,0,0,0,0,0,0,0,0,0,0,0,0,0,0,0,0,0,0,0,0,0,0,0,0,0,0,0,23,
25,0,0,0,0,0,0,0,0,0,0,0,0,0,0,0,0,0,0,0,0,0,0,0,0,0,0,0,0,0,0,0,0,0,23,
25,0,0,0,0,0,0,0,0,0,0,0,0,0,0,0,0,0,0,0,0,0,0,0,0,0,0,0,0,0,0,0,0,0,23,
25,0,0,0,0,0,0,0,0,0,0,0,0,0,0,0,0,0,0,0,0,0,0,0,0,0,0,0,0,0,0,0,0,0,23,
25,0,0,0,0,0,0,0,0,0,0,0,0,0,0,0,0,0,0,0,0,0,0,0,0,0,0,0,0,0,0,0,0,0,23,
25,0,0,0,0,0,0,0,0,0,0,0,0,0,0,0,0,0,0,0,0,0,0,0,0,0,0,0,0,0,0,0,0,0,23,
25,0,0,0,0,0,0,0,0,0,0,0,0,0,0,0,0,0,0,0,0,0,0,0,0,0,0,0,0,0,0,0,0,0,23,
25,0,0,0,0,0,0,0,0,0,0,0,0,0,0,0,0,0,0,0,0,0,0,0,0,0,0,0,0,0,0,0,0,0,23,
25,0,0,0,0,0,0,0,0,0,0,0,0,0,0,0,0,0,0,0,0,0,0,0,0,0,0,0,0,0,0,0,0,0,23,
26,2,2,2,2,2,2,2,2,2,2,2,2,2,2,2,2,2,2,2,2,2,2,2,2,2,2,2,2,2,2,2,2,2,27
</data>
 </layer>
 <objectgroup id="3" name="position">
  <object id="5" name="start" x="32" y="240" width="32" height="32"/>
  <object id="7" name="end" x="480" y="208" width="64" height="64"/>
 </objectgroup>
 <objectgroup id="4" name="items">
  <object id="33" name="kiwi" x="88" y="240" width="32" height="32"/>
  <object id="34" name="kiwi" x="152" y="240" width="32" height="32"/>
  <object id="35" name="kiwi" x="216" y="240" width="32" height="32"/>
  <object id="36" name="kiwi" x="296" y="240" width="32" height="32"/>
  <object id="86" name="kiwi" x="360" y="240" width="32" height="32"/>
  <object id="87" name="orange" x="360" y="152" width="32" height="32"/>
  <object id="88" name="orange" x="296" y="152" width="32" height="32"/>
  <object id="89" name="orange" x="216" y="152" width="32" height="32"/>
  <object id="90" name="orange" x="152" y="152" width="32" height="32"/>
  <object id="379" name="orange" x="88" y="152" width="32" height="32"/>
  <object id="380" name="cherries" x="28" y="32" width="32" height="32"/>
  <object id="381" name="cherries" x="68" y="32" width="32" height="32"/>
  <object id="382" name="cherries" x="128" y="32" width="32" height="32"/>
  <object id="383" name="cherries" x="184" y="40" width="32" height="32"/>
  <object id="384" name="cherries" x="240" y="48" width="32" height="32"/>
  <object id="385" name="cherries" x="296" y="56" width="32" height="32"/>
  <object id="386" name="apple" x="496" y="80.5" width="32" height="32"/>
  <object id="387" name="apple" x="496" y="32" width="32" height="32"/>
  <object id="388" name="apple" x="496" y="128.5" width="32" height="32"/>
  <object id="45" name="top_spike" x="32" y="208" width="16" height="16"/>
  <object id="46" name="top_spike" x="48" y="208" width="16" height="16"/>
  <object id="56" name="top_spike" x="112" y="208" width="16" height="16"/>
  <object id="72" name="top_spike" x="176" y="208" width="16" height="16"/>
  <object id="78" name="top_spike" x="320" y="208" width="16" height="16"/>
  <object id="81" name="top_spike" x="384" y="208" width="16" height="16"/>
  <object id="74" name="top_spike" x="240" y="208" width="16" height="16"/>
  <object id="49" name="top_spike" x="64" y="208" width="16" height="16"/>
  <object id="54" name="top_spike" x="128" y="208" width="16" height="16"/>
  <object id="73" name="top_spike" x="192" y="208" width="16" height="16"/>
  <object id="79" name="top_spike" x="336" y="208" width="16" height="16"/>
  <object id="82" name="top_spike" x="400" y="208" width="16" height="16"/>
  <object id="75" name="top_spike" x="256" y="208" width="16" height="16"/>
  <object id="58" name="top_spike" x="144" y="208" width="16" height="16"/>
  <object id="71" name="top_spike" x="208" y="208" width="16" height="16"/>
  <object id="80" name="top_spike" x="352" y="208" width="16" height="16"/>
  <object id="83" name="top_spike" x="416" y="208" width="16" height="16"/>
  <object id="84" name="top_spike" x="432" y="208" width="16" height="16"/>
  <object id="85" name="top_spike" x="448" y="208" width="16" height="16"/>
  <object id="76" name="top_spike" x="272" y="208" width="16" height="16"/>
  <object id="77" name="top_spike" x="288" y="208" width="16" height="16"/>
  <object id="47" name="top_spike" x="16" y="208" width="16" height="16"/>
  <object id="55" name="top_spike" x="80" y="208" width="16" height="16"/>
 </objectgroup>
</map>
